X:1
T:I. Kyrie
T:I. Kyrie
T:Joseph Haydn (1732 - 1809)
T:Copyright © 2014 by CPDL, Choral Public Domain License This edition can be fully distributed, duplicated, performed, and recorded
T:Copyright © 2014 by CPDL, Choral Public Domain License This edition can be fully distributed, duplicated, performed, and recorded
T:Copyright © 2014 by CPDL, Choral Public Domain License This edition can be fully distributed, duplicated, performed, and recorded
T:Copyright © 2014 by CPDL, Choral Public Domain License This edition can be fully distributed, duplicated, performed, and recorded
T:Copyright © 2014 by CPDL, Choral Public Domain License This edition can be fully distributed, duplicated, performed, and recorded
T:Copyright © 2014 by CPDL, Choral Public Domain License This edition can be fully distributed, duplicated, performed, and recorded
T:Copyright © 2014 by CPDL, Choral Public Domain License This edition can be fully distributed, duplicated, performed, and recorded
T:Copyright © 2014 by CPDL, Choral Public Domain License This edition can be fully distributed, duplicated, performed, and recorded
T:Copyright © 2014 by CPDL, Choral Public Domain License This edition can be fully distributed, duplicated, performed, and recorded
T:Copyright © 2014 by CPDL, Choral Public Domain License This edition can be fully distributed, duplicated, performed, and recorded
T:Copyright © 2014 by CPDL, Choral Public Domain License This edition can be fully distributed, duplicated, performed, and recorded
T:Copyright © 2014 by CPDL, Choral Public Domain License This edition can be fully distributed, duplicated, performed, and recorded
T:Copyright © 2014 by CPDL, Choral Public Domain License This edition can be fully distributed, duplicated, performed, and recorded
C:Joseph Haydn (1732 - 1809)
Z:Copyright © 2014 by CPDL, Choral Public Domain License
Z:This edition can be fully distributed, duplicated, performed, and recorded
%%score [ 1 ( 2 3 ) 4 5 ]
L:1/8
Q:1/4=65
M:2/2
K:Bb
V:1 treble nm="Soprano" snm="S"
V:2 treble nm="Alto" snm="A"
V:3 treble 
V:4 treble-8 nm="Tenore" snm="T"
V:5 bass nm="Basso" snm="B"
V:1
"^Adagio" z8 | z8 | z8 |!p!"^tutti coro" F6 F2 | F4 z2 F2 | (A6 B2) | F8- | !fermata!F8 | z8 || %9
w: |||Ky- ri-|e e-|lei- *|son.|_||
 z2"^solo" e>d c2 (f>e) | d2 B2 z4 | z8 | z8 | (e4- eg) (ec) | B4 z2 B2 | (e4- e_gec) || B4 z4 | %17
w: Ky- ri- e e- *|lei- son|||Ky- * * ri- *|e e-|lei- * * * *|son,|
 z8 ||"^solo" c3 c c2 c2 | (c2- c>A) c2 z2 | c3 c c2 c2 | (c>A e>d) c2 c2 | (d>B f>e) d2 B2 | =e8 | %24
w: |Ky- ri- e e-|lei- * * son,|Ky- ri- e e-|lei- * * * son, e-|lei- * * * son, e-|lei-|
 f4 z2 F2 | =E8 | F8- | !fermata!F8 ||[M:4/4][Q:1/4=80]"^Allegro" z8 | z8 | z8 | z8 | z8 | %33
w: son, e-|lei-|son.|_||||||
!f!"^tutti" B3 _A G2 e2 | A4 B (Bcd) | (edcd/e/ fgfe) | d2 d3 G AB | (cBAc f=e/f/gf | %38
w: Ky- ri- e e-|lei- son, e- * *|lei- * * * * * * * *|son, Ky- ri- e e-|lei- * * * * * * * *|
 =ecde) f2 A2 | d4 c2 c2- | cB A2 f3 =e | d3 (=e/f/) (g4- | g2 f4) =e2 | z2 d4 ^c2 | %44
w: * * * * son, e-|lei- son, Ky-|* ri- e, Ky- ri-|e e- * lei-|* * son,|Ky- ri-|
 c2 =B2 (_B2 A2 | G2 ^F2 G2 ^G2) | A4 z2 A2 | (B2 A2 B2 =B2 | c2 A2 B2 G2) | F2 f2 (f2 =e2) | %50
w: e e- lei- *||son, e-|lei- * * *||son, e- lei- *|
 f2 z2 z4 || z4 z2"^solo" c2 | (c=e/d/ cg/f/ ee/d/ cB) | A2 z2 z2 c2 | (c=e/d/ cg/f/ ee/d/ cB) | %55
w: son,|e-|lei- * * * * * * * * * *|son, e-|lei- * * * * * * * * * *|
 A2 z2 z4 | z2 (f4 e2) | d2 d2 (d2 c2) | B2 z (d/c/) (Bdgf | =e3 g/f/ e3 g/f/ | =eg/f/ ed cBAB) | %61
w: son,|Chri- *|ste e- lei- *|son, e- * lei- * * *|||
 A6 A2 | (_A8 | TG8) || F2 z2 z4 | z8 | z8 |!f!"^tutti" d3 c B2 g2 | ^c4 d2 (d=e) | %69
w: son, e-|lei-||son.|||Ky- ri- e e-|lei- son, e- *|
 (f2 =e2) e2 (cd) | (e2 d2) d2 B2- | B AGB (e3 d) | c2 f3 edc | (Bc/d/ed cBAc) | B2 z2 z4 | z8 | %76
w: lei- * son, e- *|lei- * son, Ky-|* ri- e e- lei- *|son, Ky- ri- e e-|lei- * * * * * * * *|son||
 z8 | z4 B3 A | G2 z2 d3 c | B2 z2 f3 e | d2 b2 =e4 | f2 _a2 d4 | e2 g3 f e2- | ed (c3 d/e/fe) | %84
w: |Ky- ri-|e, Ky- ri-|e, Ky- ri-|e e- lei-|son, e- lei-|son, Ky- ri- e|_ e- lei- * * * *|
 d2 f2 (e2 d2) | c (FGA) (B3 c | _d2 cB) A2 f2 | =e4 f2 z2 | z4 z (A/B/) (cd) | e8- | %90
w: son, e- lei- *|son, e- * * lei- *|* * * son, e-|lei- son,|e- * lei- *|son.|
 !fermata!e8 ||[M:2/2][Q:1/4=65]"^Adagio" z8 | z2"^solo" e>d c2 (f>e) | d2 B2 z4 | z8 | z8 | z8 | %97
w: _||Ky- ri- e e- *|lei- son,||||
 (f4- f_a) (fd) ||!f! e4 z2"^tutti coro" g2 |!p! A4 B z =B2 | (c2 d2 e2 c2 |!f! B4{/A} f4) | B8- | %103
w: Ky- * * ri- *|e e-|lei- son, e-|lei- * * *||son.|
!p! !fermata!B8 |] %104
w: _|
V:2
 z8 | z8 | z8 |!p!"^tutti coro" F6 F2 | F4 z2 F2 | (E6 D2) | C2 F2 F4 | !fermata!F8 | z8 || z8 | %10
w: |||Ky- ri-|e e-|lei- *|son, e- lei-|son.|||
 z8 | z8 |"^solo" (d4- df) (dB) | A4 z2 A2 | (BF) F2 z2 F2 | (c4 A4) || B2 z2 z4 | z8 || %18
w: ||Ky- * * ri- *|e e-|lei- * son, e-|lei- *|son,||
"^solo" G3 G G2 G2 | (A2- A>F) A2 z2 | G3 G G2 G2 | (A>F c>B) A2 A2 | (B2 d>c) B2 (B>A) | G8 | %24
w: Ky- ri- e e-|lei- * * son,|Ky- ri- e e-|lei- * * * son, e-|lei- * * son, e- *|lei-|
 A4 z2 A,2 | (B,6 C_D) | C2 C2 (C2 D2) | !fermata!E8 ||[M:4/4] z8 |!f! z4"^tutti" F3 E | %30
w: son, e-|lei- * *|son, e- lei- *|son.||Ky- ri-|
 D2 B2 =E4 | F (FGA) (BAGA/B/ | cdcB ABcA) | F (DEF) (GFEF/G/ | C2 F2) F2 z2 | z8 | B3 A G (=EFG) | %37
w: e e- lei-|son, e- * * lei- * * * *||son, e- * * lei- * * * *|* * son,||Ky- ri- e e- * *|
 (AGF=E) D3 G | (G=EFG) A2 (FG) | (_A2 GF) =EE (FG) | A2 z2 z2 d2- | d cBA B4 | A2 d2 (c2 B2) | %43
w: lei- * * * son, e-|lei- * * * son, e- *|lei- * * son, e- lei- *|son, Ky-|* ri- e e- lei-|son, e- lei- *|
 A2 z2 z2 A2 | (A2 G4 F=E) | D4 z2 F2 | F8 | F6 F2 | (F4 G2 =E2) | F2 A2 G4 | A2 z2 z4 || %51
w: son, e-|lei- * * *|son, e-|lei-|son, e-|lei- * *|son, e- lei-|son,|
"^solo" (A4- Ac) AF | =E2 E2 z2 (EG) | (A4- AcAF) | =E4 z4 | z2 (A4 G2) | F2 z (F/G/) (ABcA) | %57
w: Chri- * * ste e-|lei- son, e- *|lei- * * * *|son,|Chri- *|ste e- * lei- * * *|
 B2 F2 (F2 ^F2) | G2 z (B/A/) (G2 B2- | BG/A/ B3 G/A/ BG/A/ | B2 G2 =E4) | F6 F2 | (F8- | %63
w: son, e- lei- *|son, e- * lei- *|||son, e-|lei-|
 F4 T=E4) ||!f!"^tutti" F3 E D2 B2 | =E4 F2 z2 | z8 | z2 D2 (DB/A/ G2- | GA/G/ F=E) D2 z2 | %69
w: ­ ­|Ky- ri- e e-|lei- son||e- lei- * * *|* * * * * son,|
 d3 =B A2 c2 | ^F4 G2 z2 | z8 | z F (FG/A/ BAB^F | G2 CD/E/ F4) | F2 z2 z4 | z4 F3 E | D2 B2 =E4 | %77
w: Ky- ri- e e-|lei- son,||e- lei- * * * * * *||son,|Ky- ri-|e e- lei-|
 F2 F3 E DF | G4 A2 z D | B4 c3 c | (dcBc/d/) G2 z G | (cB_AB/c/ F4) | G2 z2 z4 | z8 | z8 | %85
w: son, Ky- ri- e e-|lei- son, e-|lei- son, e-|lei- * * * * son, e-|lei- * * * * *|son,|||
 F3 E D2 B2 | =E4 F2 A2 | (B2 c_d) c2 z2 | z4 z (F/G/) (AB) | c8- | !fermata!c8 ||[M:2/2] z8 | z8 | %93
w: Ky- ri- e e-|lei- son, e-|lei- * * son,|e- * lei- *|son.|_|||
 z8 | z8 |"^solo" (d4- df) (dB) | A4 z4 | _A6 A2 ||!f! G4 z2"^tutti coro" (GF) |!p! E4 D z D2 | %100
w: ||Ky- * * ri- *|e,|Ky- ri-|e e- *|lei- son, e-|
 (G2 F2 E2 G2 |!f! F4- F4) | F8- |!p! !fermata!F8 |] %104
w: lei- * * *||son.|_|
V:3
 x8 | x8 | x8 | x8 | x8 | x8 | x8 | x8 | x8 || x8 | x8 | x8 | x8 | x8 | x8 | x8 || x8 | x8 || x8 | %19
w: |||||||||||||||||||
w: |||||||||||||||||||
 x8 | x8 | x8 | x8 | x8 | x8 | x8 | x8 | x8 ||[M:4/4] x8 | x8 | x8 | x8 | x8 | x8 | x8 | x8 | x8 | %37
w: ||||||||||||||||||
w: ||||||||||||||||||
 x8 | x8 | x8 | x8 | x8 | x8 | x8 | x8 | x8 | x8 | x8 | x8 | x8 | x8 || x8 | x8 | x8 | x8 | x8 | %56
w: |||||||||||||||||||
w: |||||||||||||||||||
 x8 | x8 | x8 | x8 | x8 | x8 | x8 | x8 || F2 x6 | x8 | x8 | x8 | x8 | x8 | x8 | x8 | x8 | x8 | x8 | %75
w: |||||||||||||||||||
w: ||||||||son.|||||||||||
 x8 | x8 | x8 | x8 | x8 | x8 | x8 | x8 | x8 | x8 | x8 | x8 | x8 | x8 | x8 | x8 ||[M:2/2] x8 | x8 | %93
w: ||||||||||||||||||
w: ||||||||||||||||||
 x8 | x8 | x8 | x8 | x8 || x8 | x8 | x8 | x8 | x8 | x8 |] %104
w: |||||||||||
w: |||||||||||
V:4
 z8 | z8 | z8 |!p!"^tutti coro" F6 F2 | F4 z2 F2 | (c6 B2) | A2 F2 F4 | !fermata!F8 | z8 || z8 | %10
w: |||Ky- ri-|e e-|lei- *|son, e- lei-|son.|||
 z8 | z2"^solo" e>d c2 (f>e) | d2 B2 z4 | z8 | (_d4- df) (dB) | A4 z2 c2 || _d2 B2 z4 | z8 || %18
w: |Ky- ri- e e- *|lei- son,||Ky- * * ri- *|e e-|lei- son,||
"^solo" B3 B B2 B2 | A4 A2 z2 | B3 B B2 B2 | A4 A2 (e>c) | (B2- B>c) d2 (d>c) | (B4 c2 _d2) | %24
w: Ky- ri- e e-|lei- son,|Ky- ri- e e-|lei- son, e- *|lei- * * son, e- *|lei- * *|
 c4 z2 c2 | (_d6 cB) | A2 A2 (A2 B2) | !fermata!c8 ||[M:4/4]!f!"^tutti" B3 _A G2 e2 | A4 B (FGA) | %30
w: son e-|lei- * *|son, e- lei- *|son.|Ky- ri- e e-|lei- son, e- * *|
 (BAGA/B/ cdcB) | A (ABc) (F2 d2 | G2 c3 BAc) | B2 z2 z4 | z4 B3 _A | G2 e2 A4 | %36
w: lei- * * * * * * * *|son, e- * * lei- *||son,|Ky- ri-|e e- lei-|
 (BA) (GF) (=E2 c2) | F2 z2 z4 | c3 B A2 f2 | =B4 cc (d=e) | f2 f3 =e d2 | z2 (Bc) (_d2 c2) | %42
w: son, _ e- * lei- *|son,|Ky- ri- e e-|lei- son, e- lei- *|son, Ky- ri- e|e- * lei- *|
 c2 _A2 (G2 g2- | g2 f4 =e2 | e2 d2 _d2 c2) | d4 z2 (d>=e) | f8 | F4 z2 (F>G) | (A2 F2 =E2 B2) | %49
w: son, e- lei- *|||son, e- *|lei-|son, e- *|lei- * * *|
 A2 c2 (d2 c2) | c2 z2 z4 || z8 | z8 |"^solo" c6 fA | B2 G2 z4 | z2 (f4 =e2) | d2 z2 z4 | %57
w: son, e- lei- *|son,|||Chri- ste e-|lei- son,|Chri- *|ste,|
 z2 d4 dd | (dB/c/) d2 z2 (dg) | (g=e/f/ g3 e/f/ ge/f/ | g6 c2) | c2 z (c/B/) (Af/=e/dc) | %62
w: Chri- ste e-|lei- * * son, e- *|lei- * * * * * * * *||son, e- * lei- * * * *|
 =B2 z2 z4 | z (G/A/) (Bc d2 cB) || A2 z2 z4 |!f!"^tutti" c3 B A2 f2 | =B4 c2 e2 | A4 B2 z2 | %68
w: son,|e- * lei- * * * *|son,|Ky- ri- e e-|lei- son, e-|lei- son,|
 z4 z2 d2 | d4 c2 A2 | A4 B2 (dc) | (Bdgf edcd/e/) | f2 z2 z4 | z8 | B3 _A G2 e2 | A4 B (FGA) | %76
w: e-|lei- son, e-|lei- son, e- *|lei- * * * * * * * *|son,||Ky- ri- e e-|lei- son, e- * *|
 (BAGA/B/ cdcB) | A2 z2 z4 | c3 B A2 z2 | e3 d c2 f2 | (Bc) d2 z2 c2 | c2 c2 z2 B2 | B2 B2 e3 d | %83
w: lei- * * * * * * * *|son,|Ky- ri- e,|Ky- ri- e e-|lei- * son, e-|lei- son, e-|lei- son, Ky- ri-|
 c3 B (A3 B/c/) | d2 d2 (c2 B2) | A (ABc) (d3 c | B2 c_d) c2 c2 | (_d2 cB) A2 z2 | %88
w: e e- lei- * *|son, e- lei- *|son, e- * * lei- *|* * * son, e-|lei- * * son,|
 z (F/G/) (AB) c2 z2 | z2 f2 f4 | !fermata!f8 ||[M:2/2] z8 | z8 | z8 | z2"^solo" e>d c2 (f>e) | %95
w: e- * lei- * son,|e- lei-|son.||||Ky- ri- e e- *|
 d2 B2 z4 | (e4- eg) (ec) | d8 ||!f! z4"^tutti coro" z (Bed) |!p! c4 B z d2 | (c2 =B2 c4 | %101
w: lei- son,|Ky- * * ri- *|e|e- * *|lei son, e-|lei- * *|
!f! d4 c4) | d8- |!p! !fermata!d8 |] %104
w: |son.|_|
V:5
 z8 | z8 | z8 |!p!"^tutti coro" F,6 F,2 | F,4 z2 F,2 | F,8 | F,,8- | !fermata!F,,8 | z8 || z8 | %10
w: |||Ky- ri-|e e-|lei-|son.|_|||
"^solo" B,,2 D,2 F,2 (B,>A,) | (G,2 C>B,) A,2 A,2 | B,2 B,,2 z4 | z8 | z8 | z8 || %16
w: Ky ri- e e- *|lei- * * son, e-|lei- son.||||
!f!"^tutti" B,3 B,, B,,2 B,,2 |!>(! (_G,4 F,4)!>)! ||!p! =E,4 z2"^solo" E,2 | F,8 | =E,4 z2 E,2 | %21
w: Ky- ri- e e-|lei- *|son, e-|lei-|son, e-|
 F,8 | F,6 F,2 | (_D4 C2 B,2) | A,4 z2 F,,2 | F,,8 | F,,2 (F,>A,) (C2 B,2) | !fermata!A,8 || %28
w: lei-|son, e-|lei- * *|son, e-|lei-|son, e- * lei- *|son.|
[M:4/4] z8 | z8 | z8 |!f!"^tutti" F,3 E, D,2 B,2 | =E,4 F, (G,F,_E,) | (D,B,,C,D, E,D,C,D,/E,/ | %34
w: |||Ky- ri- e e-|lei- son, e- * *|lei- * * * * * * * *|
 F,G,F,E,) D,2 z2 | z8 | z4 C,3 B,, | A,,2 F,2 =B,,4 | C,2 C,2 C,4 | C,4 C3 B, | A,2 D3 C (B,2- | %41
w: * * * * son,||Ky- ri-|e e- lei-|son, e- lei-|son, Ky- ri-|e, Ky- ri- e|
 B,A,) (G,F,) =E,4 | F,2 =B,,2 (C,2 ^C,2) | D,2 B,2 ^G,2 A,2 | z2 G,2 =E,2 F,2 | B,,6 =B,,2 | %46
w: _ _ e- * lei-|son, e- lei- *|son, e- lei- son,|e- lei- son,|Ky- ri-|
 C,2 =B,,2 (C,2 ^C,2) | D,6 _D,2 | C,8 | D,2 A,,2 (B,,2 C,2) | F,,2 z2 z4 || z8 | %52
w: e e- lei- *|son, e-|lei-|son, e- lei- *|son,||
"^solo" (B,4- B,D) B,G, | F,2 F,2 z2 F,2 | (B,4- B,DB,G,) | F,2 z (F,/G,/) (A,B,C^C) | D2 z2 z4 | %57
w: Chri- * * ste e-|lei- son, e-|lei- * * * *|son, e- * lei- * * *|son|
 z2 B,4 A,A, | (G,>A,) B,2 z2 G,2 | (C8 | C,8) | F,2 z2 z4 | z (D/C/ =B,D/C/ B,2 =B,,2) | C,8 || %64
w: Chri- ste e-|lei- * son, e-|lei-||son,|e- * * * * * *|lei-|
 F,2 z2 z4 | z8 |!f!"^tutti" G,3 F, E,2 C2 | ^F,4 G,2 z2 | A,3 G, F,2 D2 | ^G,4 A,2 z2 | %70
w: son,||Ky- ri- e e-|lei- son|Ky- ri- e e-|lei- son,|
 D,3 C, B,,2 G,2- | G, F,E,G, (C3 B, | A,2 D3 CB,A, | G,A,/B,/CB, A,G,F,E,) | %74
w: Ky- ri- e, Ky-|* ri- e e- lei- *|||
 D, (B,,C,D,) (E,D,C,D,/E,/ | F,G,F,E,) D,2 z2 | z8 | F,3 E, D,2 B,2 | (=E,2 C2 ^F,2 D2 | %79
w: son, e- * * lei- * * * *|* * * * son,||Ky- ri- e e-|lei- * * *|
 G,2 E2) A,3 A, | (B,A,G,A,/B,/ CDCB, | A,G,F,G,/_A,/ B,CB,A, | G,F,) E,2 C3 B, | %83
w: * * son, e-|lei- * * * * * * * *||* * son, Ky- ri-|
 A,3 G, (F,3 G,/A,/) | B,2 B,,2 (E,2 =E,2) | F,4 z2 F,2 | F,8- | F,4 F,2 z2 | z F, (F,G,) A,2 z2 | %89
w: e e- lei- * *|son, e- lei- *|son, e-|lei-|* son,|e- lei- * son,|
 z2 A,2 A,4 | !fermata!A,8 ||[M:2/2] z8 | z8 |"^solo" B,,2 D,2 F,2 (B,>A,) | (G,2 C>B,) A,2 A,2 | %95
w: e- lei-|son.|||Ky- ri- e e- *|lei- * * son, e-|
 B,2 B,,2 z4 | z8 | B,,6 B,,2 ||!f! E,4 z2"^tutti coro" E,2 |!p! F,4 G, z F,2 | (E,2 D,2 C,2 E,2 | %101
w: lei- son,||Ky- ri-|e e-|lei- son, e-|lei- * * *|
!f! F,4 F,,4) | B,,8- |!p! !fermata!B,,8 |] %104
w: |son.|_|

